material/.icons/material/castle.svg

<svg xmlns="http://www.w3.org/2000/svg" viewBox="0 0 24 24"><path d="M2 13h2v2h2v-2h2v2h2v-2h2v2h2v-5l3-3V1h2l4 2-4 2v2l3 3v12H11v-3a2 2 0 00-2-2 2 2 0 00-2 2v3H2v-9m16-3c-.55 0-1 .54-1 1.2V13h2v-1.8c0-.66-.45-1.2-1-1.2z"/></svg>

<?xml version="1.0" encoding="UTF-8"?><!DOCTYPE svg PUBLIC "-//W3C//DTD SVG 1.1//EN" "http://www.w3.org/Graphics/SVG/1.1/DTD/svg11.dtd"><svg xmlns="http://www.w3.org/2000/svg" xmlns:xlink="http://www.w3.org/1999/xlink" version="1.1" id="mdi-castle" width="24" height="24" viewBox="0 0 24 24"><path d="M2,13H4V15H6V13H8V15H10V13H12V15H14V10L17,7V1H19L23,3L19,5V7L22,10V22H11V19A2,2 0 0,0 9,17A2,2 0 0,0 7,19V22H2V13M18,10C17.45,10 17,10.54 17,11.2V13H19V11.2C19,10.54 18.55,10 18,10Z" /></svg>
